app/client/src/assets/icons/blueprintjs/16px/geofence.svg

<?xml version="1.0" encoding="utf-8"?>
<!-- Generator: Adobe Illustrator 18.0.0, SVG Export Plug-In . SVG Version: 6.00 Build 0)  -->
<svg version="1.1" id="Layer_1" xmlns="http://www.w3.org/2000/svg" xmlns:xlink="http://www.w3.org/1999/xlink" x="0px" y="0px"
	 viewBox="0 0 16 16" enable-background="new 0 0 16 16" xml:space="preserve">
<g id="align_top">
	<g>
		<path fill-rule="evenodd" clip-rule="evenodd" d="M6,9 C6.55,9 7,9.45 7,10 L7,10 L7,14 C7,14.55 6.55,15 6,15 C5.45,15 5,14.55 5,14 L5,14 L5,12.41 L1.71,15.71 C1.53,15.89 1.28,16 1,16 C0.45,16 2.20268248e-13,15.55 2.20268248e-13,15 C2.20268248e-13,14.72 0.11,14.47 0.3,14.29 L0.3,14.29 L3.59,11 L2,11 C1.45,11 1,10.55 1,10 C1,9.45 1.45,9 2,9 L2,9 Z M9.08756622,0.00380513062 L9.18529768,0.0171337985 L9.28219234,0.0405886252 L9.33871637,0.0588222509 L9.43839702,0.10097435 L9.49341446,0.129951862 L9.58824332,0.190980103 L9.6401844,0.23177872 L15.6401844,5.23177872 L15.6904182,5.27653669 L15.7663289,5.35715863 L15.8194931,5.42647439 L15.8784987,5.52169693 L15.9301846,5.63280972 C15.9855475,5.77331652 16.0089763,5.92565348 15.9972021,6.07783507 L15.983299,6.18348856 L15.9455422,6.32630842 L15.9111156,6.41276332 L15.8682431,6.49613894 L11.8682431,13.4961389 L11.8340207,13.5517989 L11.7753429,13.6316044 L11.7371207,13.6760501 L11.6406975,13.7681468 L11.526717,13.8502168 L11.4112263,13.9118035 L11.3248859,13.9460091 L11.2160094,13.9765796 L11.1166211,13.9932723 L11.0471876,13.9990123 L8.82967534,13.9990123 C8.91792226,13.748942 8.97398189,13.4837687 8.99287587,13.2083795 L9,13 L9,10 C9,8.40231912 7.75108004,7.09633912 6.17627279,7.00509269 L6,7 L3,7 C2.6486814,7 2.31146737,7.06038886 1.99817202,7.17135248 L2,5 L2.00234782,4.93093327 L2.01462291,4.82959974 L2.02961777,4.75744928 L2.05489337,4.67249367 L2.09790701,4.56796612 L2.15374472,4.46696947 L2.19884057,4.40109376 L2.27787238,4.3079312 L2.36210203,4.22984464 L2.4452998,4.16794971 L8.4452998,0.167949706 L8.51508641,0.125376843 L8.63546906,0.0686095481 L8.7461138,0.0326852122 L8.85380334,0.0107346452 L8.93664365,0.00184310975 L8.96841012,0.00048832147 C9.01443199,-0.000662068376 9.05110777,0.000577300155 9.08756622,0.00380513062 Z"/>
	</g>
</g>
</svg>

<svg xmlns="http://www.w3.org/2000/svg" xml:space="preserve" viewBox="0 0 16 16"><path fill-rule="evenodd" d="M6 9c.55 0 1 .45 1 1v4c0 .55-.45 1-1 1s-1-.45-1-1v-1.59l-3.29 3.3A1.003 1.003 0 0 1 0 15c0-.28.11-.53.3-.71L3.59 11H2c-.55 0-1-.45-1-1s.45-1 1-1ZM9.088.004l.097.013.097.024.057.018.1.042.054.029.095.061.052.04 6 5 .05.046.076.08.053.07.06.095.051.11c.056.141.079.294.067.446l-.014.105-.037.143-.035.087-.043.083-4 7-.034.056-.059.08-.038.044-.096.092-.114.082-.116.062-.086.034-.109.03-.1.017-.069.006H8.83c.088-.25.144-.515.163-.79L9 13v-3a3 3 0 0 0-2.824-2.995L6 7H3c-.351 0-.689.06-1.002.171L2 5l.002-.07.013-.1.015-.073.025-.085.043-.104.056-.101.045-.066.079-.093.084-.078.083-.062 6-4 .07-.043.12-.056.111-.036.108-.022.083-.01h.031c.046-.002.083 0 .12.003Z" clip-rule="evenodd"/></svg>
